X: 4
T: A Trip To The Cottage
R: jig
M: 6/8
L: 1/8
K: Gmaj
d2 B BAB|c2 A AFD|G2 G FGA|BAB ABc|
d2 B BAB|cBc AFD|EFG FGA|BGG G3:|
|:gfe dcB|edc BAG|ecA dBG|FAG FED|
gfe dcB|edc BAG|efg eag|1fdd d3:|2fef g3|]


Tune 833	Setting 833

